X:153
T:Sonny's Mazurka
L:1/8
K:D
M:3/4
R:mazurka
DF|:A2 AG FA | d2 dB cA | G2 GB AG | FG EF DF |
A2 AG FA | d2 dA BA | GF Gg fe | d4 :|
Ad | f2 fa gf | e2 eg fe | d2 df ed | cd Bc Ad |
f2 fa gf | e2 eg fe | dc df ec | d4 :|

%%newpage
%%scale .7
%%staffsep 40

